src/svg/24/money_transfer_outline_24.svg

<?xml version="1.0" encoding="UTF-8"?>
<svg width="24px" height="24px" viewBox="0 0 24 24" version="1.1" xmlns="http://www.w3.org/2000/svg" xmlns:xlink="http://www.w3.org/1999/xlink">
    <!-- Generator: Sketch 59.1 (86144) - https://sketch.com -->
    <title>money_transfer_outline_24</title>
    <desc>Created with Sketch.</desc>
    <g id="Page-1" stroke="none" stroke-width="1" fill="none" fill-rule="evenodd">
        <g id="money_transfer_outline_24">
            <rect x="0" y="0" width="24" height="24"></rect>
            <path d="M6.2048565,3.1 L17.7951435,3.1 C18.9470325,3.1 19.534282,3.2134031 20.1454961,3.540284 C20.7097451,3.84204769 21.1579523,4.29025486 21.459716,4.8545039 C21.7614522,5.41870157 21.8812902,5.96247961 21.8979414,6.94879123 L21.9,7.2048565 L21.9,12 C21.9,12.4970563 21.4970563,12.9 21,12.9 C20.5411788,12.9 20.1625482,12.5566633 20.1070123,12.1128941 L20.1,12 L20.099,8.9 L3.899,8.9 L3.9,14.7951435 C3.9,15.675296 3.95919287,15.9818219 4.12754776,16.2966182 C4.2615518,16.5471839 4.45281606,16.7384482 4.70338184,16.8724522 C4.99396302,17.0278568 5.2774972,17.0902475 6.01166224,17.0989265 L6.2048565,17.1 L18.827,17.1 L17.3636039,15.6363961 C17.0414214,15.3142136 17.0145728,14.808534 17.2830583,14.4557686 L17.3636039,14.3636039 C17.6857864,14.0414214 18.191466,14.0145728 18.5442314,14.2830583 L18.6363961,14.3636039 L21.6363961,17.3636039 C21.9585786,17.6857864 21.9854272,18.191466 21.7169417,18.5442314 L21.6363961,18.6363961 L18.6363961,21.6363961 C18.2849242,21.987868 17.7150758,21.987868 17.3636039,21.6363961 C17.0414214,21.3142136 17.0145728,20.808534 17.2830583,20.4557686 L17.3636039,20.3636039 L18.827,18.9 L6.2048565,18.9 C5.14157433,18.9 4.55940518,18.8033725 3.99539582,18.5314061 L3.8545039,18.459716 C3.29025486,18.1579523 2.84204769,17.7097451 2.540284,17.1454961 C2.23854778,16.5812984 2.11870981,16.0375204 2.10205862,15.0512088 L2.1,14.7951435 L2.1,7.2048565 C2.1,6.05296748 2.2134031,5.46571805 2.540284,4.8545039 C2.84204769,4.29025486 3.29025486,3.84204769 3.8545039,3.540284 C4.41870157,3.23854778 4.96247961,3.11870981 5.94879123,3.10205862 L6.2048565,3.1 L17.7951435,3.1 Z M17.7951435,4.9 L6.2048565,4.9 C5.32470396,4.9 5.01817811,4.95919287 4.70338184,5.12754776 C4.45281606,5.2615518 4.2615518,5.45281606 4.12754776,5.70338184 C3.97214325,5.99396302 3.90975252,6.2774972 3.90107351,7.01166224 L3.9,7.1 L20.098,7.1 L20.0989265,7.01166224 C20.0902475,6.2774972 20.0278568,5.99396302 19.8724522,5.70338184 C19.7384482,5.45281606 19.5471839,5.2615518 19.2966182,5.12754776 C19.006037,4.97214325 18.7225028,4.90975252 17.9883378,4.90107351 L17.7951435,4.9 Z" id="↳-Icon-Color" fill="currentColor" fill-rule="nonzero"></path>
        </g>
    </g>
</svg>

<svg fill="none" height="24" width="24" xmlns="http://www.w3.org/2000/svg"><path d="M17.795 3.1c1.152 0 1.74.113 2.35.44a3.17 3.17 0 011.315 1.315c.302.564.421 1.107.438 2.094l.002.256V12a.9.9 0 01-1.793.113L20.1 12l-.001-3.1h-16.2l.001 5.895c0 .88.06 1.187.228 1.502.134.25.325.441.575.575.291.156.574.218 1.309.227l.193.001h12.622l-1.463-1.464a.9.9 0 01-.08-1.18l.08-.092a.9.9 0 011.18-.08l.092.08 3 3a.9.9 0 01.08 1.18l-.08.092-3 3a.9.9 0 01-1.353-1.18l.08-.092 1.464-1.464H6.205c-1.063 0-1.646-.097-2.21-.369l-.14-.071a3.171 3.171 0 01-1.315-1.314c-.301-.565-.421-1.108-.438-2.095l-.002-.256v-7.59c0-1.152.113-1.74.44-2.35A3.171 3.171 0 013.855 3.54c.564-.301 1.107-.421 2.094-.438l.256-.002zm0 1.8H6.205c-.88 0-1.187.06-1.502.228-.25.134-.441.325-.575.575-.156.291-.218.574-.227 1.309L3.9 7.1h16.198v-.088c-.008-.734-.07-1.018-.225-1.309a1.372 1.372 0 00-.576-.575c-.291-.156-.574-.218-1.309-.227z" fill="currentColor"/></svg>
